X: 1
T: Robin & Jim's Waltz
T: For Robin Harrington & Jim Fownes
C: Everest Witman
R: waltz
Z: 2021 John Chambers <jc:trillian.mit.edu>
S: Tunes 'N Stuff with Audrey Knuth
S: https://drive.google.com/drive/folders/1yXGhj24P9IU-sNyqHq_582DajPWJPEqj 2021-5-31
M: 3/4
L: 1/8
K: C
G,CD |\
"C"ED EG FE | "G/B"D2 "Am"CD EG | "F"cB GD E/F/G | "G"D4- DG || "Am"AG Ac Bc | "C/E"GD "F"C4 |
[1 "Dm"FE DC D/E/G | "D"D3 :|2 "Dm"FE DC "G"D/E/D | "C"C2- CD EG |: "Am"c3 B2 G | "D/E"DG "F"C4 | "Dm"cB cd cB |
"G"G4 GA || "Ab9maj7b13"_BA Bc BA | "Bb6/9"FA G4 |1 "F"c C cd- | "G"d3 G AB :|2 "F"F6 | "G"G3 |]
